icons/media/disc-arrow-left-24.svg

<svg width="24" height="24" viewBox="0 0 24 24" fill="none" xmlns="http://www.w3.org/2000/svg">
<path d="M19.7776 22.6389L17.6427 20.2947H23.2526C23.4508 20.2947 23.6409 20.2115 23.7811 20.0634C23.9213 19.9154 24 19.7146 24 19.5052C24 19.2958 23.9213 19.095 23.7811 18.9469C23.6409 18.7989 23.4508 18.7157 23.2526 18.7157H17.6427L19.7776 16.3715C19.8504 16.301 19.9093 16.216 19.9508 16.1213C19.9923 16.0267 20.0157 15.9243 20.0195 15.8201C20.0233 15.7158 20.0076 15.6118 19.9731 15.5141C19.9387 15.4163 19.8862 15.3267 19.8188 15.2505C19.7514 15.1743 19.6703 15.1129 19.5803 15.07C19.4903 15.027 19.3932 15.0034 19.2944 15.0003C19.1957 14.9973 19.0974 15.015 19.0052 15.0523C18.913 15.0896 18.8287 15.1459 18.7572 15.2178L15.2371 18.9283C15.1623 19.0022 15.1026 19.0915 15.0618 19.1907C15.021 19.29 15 19.397 15 19.5052C15 19.6134 15.021 19.7204 15.0618 19.8196C15.1026 19.9188 15.1623 20.0082 15.2371 20.082L18.7572 23.7926C18.9024 23.9331 19.0943 24.0075 19.2911 23.9994C19.4879 23.9913 19.6738 23.9015 19.8083 23.7495C19.9428 23.5975 20.015 23.3955 20.0092 23.1875C20.0035 22.9795 19.9203 22.7824 19.7776 22.6389Z" fill="black"/>
<path fill-rule="evenodd" clip-rule="evenodd" d="M12 2.5C6.75329 2.5 2.5 6.75329 2.5 12C2.5 17.2467 6.75329 21.5 12 21.5C12.4142 21.5 12.75 21.8358 12.75 22.25C12.75 22.6642 12.4142 23 12 23C5.92487 23 1 18.0751 1 12C1 5.92487 5.92487 1 12 1C18.0751 1 23 5.92487 23 12C23 12.4142 22.6642 12.75 22.25 12.75C21.8358 12.75 21.5 12.4142 21.5 12C21.5 6.75329 17.2467 2.5 12 2.5Z" fill="black"/>
<path fill-rule="evenodd" clip-rule="evenodd" d="M12 13.5C12.8284 13.5 13.5 12.8284 13.5 12C13.5 11.1716 12.8284 10.5 12 10.5C11.1716 10.5 10.5 11.1716 10.5 12C10.5 12.8284 11.1716 13.5 12 13.5ZM12 15C13.6569 15 15 13.6569 15 12C15 10.3431 13.6569 9 12 9C10.3431 9 9 10.3431 9 12C9 13.6569 10.3431 15 12 15Z" fill="black"/>
</svg>

<svg xmlns="http://www.w3.org/2000/svg" width="24" height="24"><path d="M19.778 22.639l-2.135-2.344h5.61a.728.728 0 00.528-.232.812.812 0 00.219-.558c0-.21-.079-.41-.219-.558a.728.728 0 00-.528-.231h-5.61l2.135-2.345a.825.825 0 00.041-1.121.75.75 0 00-.239-.18.714.714 0 00-.823.148l-3.52 3.71a.792.792 0 00-.175.263.828.828 0 00.175.891l3.52 3.71a.723.723 0 00.534.207.731.731 0 00.517-.25.815.815 0 00.201-.561.81.81 0 00-.231-.55z"/><path fill-rule="evenodd" d="M12 2.5a9.5 9.5 0 100 19 .75.75 0 010 1.5C5.925 23 1 18.075 1 12S5.925 1 12 1s11 4.925 11 11a.75.75 0 01-1.5 0A9.5 9.5 0 0012 2.5z"/><path fill-rule="evenodd" d="M12 13.5a1.5 1.5 0 100-3 1.5 1.5 0 000 3zm0 1.5a3 3 0 100-6 3 3 0 000 6z"/></svg>
